X: 082148
T: Hazelwood Races
C: Joe Liddy
Z: BB
S: "The Leitrim Fiddler" (Dublin 1981)
L: 1/8
M: 4/4
R: reel
Q: 1/4 = 180
K: G
BA | BE E2 EDB,D | GEED A2 GA | BE E2 EDB,D | GBdB A2 BA |
GE (3GED EDB,D | GEED A2 GA | BE E2 DEGA | BGdB A2 :|
EF | G3B dGBA | GABd egeB | G2 Bd eBdB | A2 BA GEDE |
G3B dGBA | GABd e3 e | g2 fg efge |1 dcBG A2 :|2 dcBA G4 ||
